static/img/kroki/35395c0c1e2fea756104961b4c9d1679.svg

<?xml version="1.0" encoding="us-ascii" standalone="no"?><svg xmlns="http://www.w3.org/2000/svg" xmlns:xlink="http://www.w3.org/1999/xlink" contentStyleType="text/css" height="1288px" preserveAspectRatio="none" style="width:592px;height:1288px;" version="1.1" viewBox="0 0 592 1288" width="592px" zoomAndPan="magnify"><defs/><g><!--class azure_mysql_server_type--><g id="elem_azure_mysql_server_type"><rect codeLine="23" fill="#3D176E" height="39.7891" id="azure_mysql_server_type" rx="2.5" ry="2.5" style="stroke:#000D19;stroke-width:0.5;" width="254" x="7" y="1242.7"/><ellipse cx="22" cy="1262.5945" fill="#ADD1B2" rx="11" ry="11" style="stroke:#181818;stroke-width:1.0;"/><path d="M24.9688,1268.2352 Q24.3906,1268.532 23.75,1268.6727 Q23.1094,1268.8289 22.4063,1268.8289 Q19.9063,1268.8289 18.5781,1267.1883 Q17.2656,1265.532 17.2656,1262.407 Q17.2656,1259.282 18.5781,1257.6258 Q19.9063,1255.9695 22.4063,1255.9695 Q23.1094,1255.9695 23.75,1256.1258 Q24.4063,1256.282 24.9688,1256.5789 L24.9688,1259.2977 Q24.3438,1258.7195 23.75,1258.4539 Q23.1563,1258.1727 22.5313,1258.1727 Q21.1875,1258.1727 20.5,1259.2508 Q19.8125,1260.3133 19.8125,1262.407 Q19.8125,1264.5008 20.5,1265.5789 Q21.1875,1266.6414 22.5313,1266.6414 Q23.1563,1266.6414 23.75,1266.3758 Q24.3438,1266.0945 24.9688,1265.5164 L24.9688,1268.2352 Z " fill="#000000"/><text fill="#D9B8FF" font-family="Helvetica" font-size="17" lengthAdjust="spacing" textLength="212" x="41" y="1268.4798">azure_mysql_server_type</text></g><!--class azure_postgresql_server_type--><g id="elem_azure_postgresql_server_type"><rect codeLine="26" fill="#3D176E" height="39.7891" id="azure_postgresql_server_type" rx="2.5" ry="2.5" style="stroke:#000D19;stroke-width:0.5;" width="289" x="296.5" y="1242.7"/><ellipse cx="311.5" cy="1262.5945" fill="#ADD1B2" rx="11" ry="11" style="stroke:#181818;stroke-width:1.0;"/><path d="M314.4688,1268.2352 Q313.8906,1268.532 313.25,1268.6727 Q312.6094,1268.8289 311.9063,1268.8289 Q309.4063,1268.8289 308.0781,1267.1883 Q306.7656,1265.532 306.7656,1262.407 Q306.7656,1259.282 308.0781,1257.6258 Q309.4063,1255.9695 311.9063,1255.9695 Q312.6094,1255.9695 313.25,1256.1258 Q313.9063,1256.282 314.4688,1256.5789 L314.4688,1259.2977 Q313.8438,1258.7195 313.25,1258.4539 Q312.6563,1258.1727 312.0313,1258.1727 Q310.6875,1258.1727 310,1259.2508 Q309.3125,1260.3133 309.3125,1262.407 Q309.3125,1264.5008 310,1265.5789 Q310.6875,1266.6414 312.0313,1266.6414 Q312.6563,1266.6414 313.25,1266.3758 Q313.8438,1266.0945 314.4688,1265.5164 L314.4688,1268.2352 Z " fill="#000000"/><text fill="#D9B8FF" font-family="Helvetica" font-size="17" lengthAdjust="spacing" textLength="247" x="330.5" y="1268.4798">azure_postgresql_server_type</text></g><!--class database_instance_type--><g id="elem_database_instance_type"><rect codeLine="29" fill="#3D176E" height="39.7891" id="database_instance_type" rx="2.5" ry="2.5" style="stroke:#000D19;stroke-width:0.5;" width="242" x="166" y="1081.91"/><ellipse cx="181" cy="1101.8045" fill="#ADD1B2" rx="11" ry="11" style="stroke:#181818;stroke-width:1.0;"/><path d="M183.9688,1107.4452 Q183.3906,1107.742 182.75,1107.8827 Q182.1094,1108.0389 181.4063,1108.0389 Q178.9063,1108.0389 177.5781,1106.3983 Q176.2656,1104.742 176.2656,1101.617 Q176.2656,1098.492 177.5781,1096.8358 Q178.9063,1095.1795 181.4063,1095.1795 Q182.1094,1095.1795 182.75,1095.3358 Q183.4063,1095.492 183.9688,1095.7889 L183.9688,1098.5077 Q183.3438,1097.9295 182.75,1097.6639 Q182.1563,1097.3827 181.5313,1097.3827 Q180.1875,1097.3827 179.5,1098.4608 Q178.8125,1099.5233 178.8125,1101.617 Q178.8125,1103.7108 179.5,1104.7889 Q180.1875,1105.8514 181.5313,1105.8514 Q182.1563,1105.8514 182.75,1105.5858 Q183.3438,1105.3045 183.9688,1104.7264 L183.9688,1107.4452 Z " fill="#000000"/><text fill="#D9B8FF" font-family="Helvetica" font-size="17" lengthAdjust="spacing" textLength="200" x="200" y="1107.6898">database_instance_type</text></g><!--class instance_type--><g id="elem_instance_type"><rect codeLine="32" fill="#3D176E" height="39.7891" id="instance_type" rx="2.5" ry="2.5" style="stroke:#000D19;stroke-width:0.5;" width="158" x="208" y="921.12"/><ellipse cx="223" cy="941.0145" fill="#ADD1B2" rx="11" ry="11" style="stroke:#181818;stroke-width:1.0;"/><path d="M225.9688,946.6552 Q225.3906,946.952 224.75,947.0927 Q224.1094,947.2489 223.4063,947.2489 Q220.9063,947.2489 219.5781,945.6083 Q218.2656,943.952 218.2656,940.827 Q218.2656,937.702 219.5781,936.0458 Q220.9063,934.3895 223.4063,934.3895 Q224.1094,934.3895 224.75,934.5458 Q225.4063,934.702 225.9688,934.9989 L225.9688,937.7177 Q225.3438,937.1395 224.75,936.8739 Q224.1563,936.5927 223.5313,936.5927 Q222.1875,936.5927 221.5,937.6708 Q220.8125,938.7333 220.8125,940.827 Q220.8125,942.9208 221.5,943.9989 Q222.1875,945.0614 223.5313,945.0614 Q224.1563,945.0614 224.75,944.7958 Q225.3438,944.5145 225.9688,943.9364 L225.9688,946.6552 Z " fill="#000000"/><text fill="#D9B8FF" font-family="Helvetica" font-size="17" lengthAdjust="spacing" textLength="116" x="242" y="946.8998">instance_type</text></g><!--class phantom_resource--><g id="elem_phantom_resource"><rect codeLine="35" fill="#3D176E" height="39.7891" id="phantom_resource" rx="2.5" ry="2.5" style="stroke:#000D19;stroke-width:0.5;" width="198" x="188" y="438.76"/><ellipse cx="203" cy="458.6545" fill="#ADD1B2" rx="11" ry="11" style="stroke:#181818;stroke-width:1.0;"/><path d="M205.9688,464.2952 Q205.3906,464.592 204.75,464.7327 Q204.1094,464.8889 203.4063,464.8889 Q200.9063,464.8889 199.5781,463.2483 Q198.2656,461.592 198.2656,458.467 Q198.2656,455.342 199.5781,453.6858 Q200.9063,452.0295 203.4063,452.0295 Q204.1094,452.0295 204.75,452.1858 Q205.4063,452.342 205.9688,452.6389 L205.9688,455.3577 Q205.3438,454.7795 204.75,454.5139 Q204.1563,454.2327 203.5313,454.2327 Q202.1875,454.2327 201.5,455.3108 Q200.8125,456.3733 200.8125,458.467 Q200.8125,460.5608 201.5,461.6389 Q202.1875,462.7014 203.5313,462.7014 Q204.1563,462.7014 204.75,462.4358 Q205.3438,462.1545 205.9688,461.5764 L205.9688,464.2952 Z " fill="#000000"/><text fill="#D9B8FF" font-family="Helvetica" font-size="17" lengthAdjust="spacing" textLength="156" x="222" y="464.5398">phantom_resource</text></g><!--class quota--><g id="elem_quota"><rect codeLine="38" fill="#3D176E" height="39.7891" id="quota" rx="2.5" ry="2.5" style="stroke:#000D19;stroke-width:0.5;" width="90" x="242" y="599.54"/><ellipse cx="257" cy="619.4345" fill="#ADD1B2" rx="11" ry="11" style="stroke:#181818;stroke-width:1.0;"/><path d="M259.9688,625.0752 Q259.3906,625.372 258.75,625.5127 Q258.1094,625.6689 257.4063,625.6689 Q254.9063,625.6689 253.5781,624.0283 Q252.2656,622.372 252.2656,619.247 Q252.2656,616.122 253.5781,614.4658 Q254.9063,612.8095 257.4063,612.8095 Q258.1094,612.8095 258.75,612.9658 Q259.4063,613.122 259.9688,613.4189 L259.9688,616.1377 Q259.3438,615.5595 258.75,615.2939 Q258.1563,615.0127 257.5313,615.0127 Q256.1875,615.0127 255.5,616.0908 Q254.8125,617.1533 254.8125,619.247 Q254.8125,621.3408 255.5,622.4189 Q256.1875,623.4814 257.5313,623.4814 Q258.1563,623.4814 258.75,623.2158 Q259.3438,622.9345 259.9688,622.3564 L259.9688,625.0752 Z " fill="#000000"/><text fill="#D9B8FF" font-family="Helvetica" font-size="17" lengthAdjust="spacing" textLength="48" x="276" y="625.3198">quota</text></g><!--class resource--><g id="elem_resource"><rect codeLine="41" fill="#3D176E" height="310.7578" id="resource" rx="2.5" ry="2.5" style="stroke:#000D19;stroke-width:0.5;" width="227" x="173.5" y="7"/><ellipse cx="242.25" cy="26.8945" fill="#ADD1B2" rx="11" ry="11" style="stroke:#181818;stroke-width:1.0;"/><path d="M245.2188,32.5352 Q244.6406,32.832 244,32.9727 Q243.3594,33.1289 242.6563,33.1289 Q240.1563,33.1289 238.8281,31.4883 Q237.5156,29.832 237.5156,26.707 Q237.5156,23.582 238.8281,21.9258 Q240.1563,20.2695 242.6563,20.2695 Q243.3594,20.2695 244,20.4258 Q244.6563,20.582 245.2188,20.8789 L245.2188,23.5977 Q244.5938,23.0195 244,22.7539 Q243.4063,22.4727 242.7813,22.4727 Q241.4375,22.4727 240.75,23.5508 Q240.0625,24.6133 240.0625,26.707 Q240.0625,28.8008 240.75,29.8789 Q241.4375,30.9414 242.7813,30.9414 Q243.4063,30.9414 244,30.6758 Q244.5938,30.3945 245.2188,29.8164 L245.2188,32.5352 Z " fill="#000000"/><text fill="#D9B8FF" font-family="Helvetica" font-size="17" lengthAdjust="spacing" textLength="71" x="267.75" y="32.7798">resource</text><line style="stroke:#000D19;stroke-width:0.5;" x1="174.5" x2="399.5" y1="46.7891" y2="46.7891"/><text fill="#D9B8FF" font-family="sans-serif" font-size="14" font-weight="bold" lengthAdjust="spacing" textLength="29" x="184.5" y="68.7842">age</text><text fill="#D9B8FF" font-family="sans-serif" font-size="14" lengthAdjust="spacing" textLength="66" x="213.5" y="68.7842">: duration</text><text fill="#D9B8FF" font-family="sans-serif" font-size="14" font-weight="bold" lengthAdjust="spacing" textLength="43" x="184.5" y="95.0811">atime</text><text fill="#D9B8FF" font-family="sans-serif" font-size="14" lengthAdjust="spacing" textLength="70" x="227.5" y="95.0811">: datetime</text><text fill="#D9B8FF" font-family="sans-serif" font-size="14" font-weight="bold" lengthAdjust="spacing" textLength="43" x="184.5" y="121.3779">ctime</text><text fill="#D9B8FF" font-family="sans-serif" font-size="14" lengthAdjust="spacing" textLength="70" x="227.5" y="121.3779">: datetime</text><text fill="#D9B8FF" font-family="sans-serif" font-size="14" font-weight="bold" lengthAdjust="spacing" textLength="14" x="184.5" y="147.6748">id</text><text fill="#D9B8FF" font-family="sans-serif" font-size="14" lengthAdjust="spacing" textLength="48" x="198.5" y="147.6748">: string</text><text fill="#D9B8FF" font-family="sans-serif" font-size="14" font-weight="bold" lengthAdjust="spacing" textLength="33" x="184.5" y="173.9717">kind</text><text fill="#D9B8FF" font-family="sans-serif" font-size="14" lengthAdjust="spacing" textLength="48" x="217.5" y="173.9717">: string</text><text fill="#D9B8FF" font-family="sans-serif" font-size="14" font-weight="bold" lengthAdjust="spacing" textLength="90" x="184.5" y="200.2686">last_access</text><text fill="#D9B8FF" font-family="sans-serif" font-size="14" lengthAdjust="spacing" textLength="66" x="274.5" y="200.2686">: duration</text><text fill="#D9B8FF" font-family="sans-serif" font-size="14" font-weight="bold" lengthAdjust="spacing" textLength="90" x="184.5" y="226.5654">last_update</text><text fill="#D9B8FF" font-family="sans-serif" font-size="14" lengthAdjust="spacing" textLength="66" x="274.5" y="226.5654">: duration</text><text fill="#D9B8FF" font-family="sans-serif" font-size="14" font-weight="bold" lengthAdjust="spacing" textLength="48" x="184.5" y="252.8623">mtime</text><text fill="#D9B8FF" font-family="sans-serif" font-size="14" lengthAdjust="spacing" textLength="70" x="232.5" y="252.8623">: datetime</text><text fill="#D9B8FF" font-family="sans-serif" font-size="14" font-weight="bold" lengthAdjust="spacing" textLength="43" x="184.5" y="279.1592">name</text><text fill="#D9B8FF" font-family="sans-serif" font-size="14" lengthAdjust="spacing" textLength="48" x="227.5" y="279.1592">: string</text><text fill="#D9B8FF" font-family="sans-serif" font-size="14" font-weight="bold" lengthAdjust="spacing" textLength="34" x="184.5" y="305.4561">tags</text><text fill="#D9B8FF" font-family="sans-serif" font-size="14" lengthAdjust="spacing" textLength="171" x="218.5" y="305.4561">: dictionary[string, string]</text></g><!--class type--><g id="elem_type"><rect codeLine="53" fill="#3D176E" height="39.7891" id="type" rx="2.5" ry="2.5" style="stroke:#000D19;stroke-width:0.5;" width="79" x="247.5" y="760.33"/><ellipse cx="262.5" cy="780.2245" fill="#ADD1B2" rx="11" ry="11" style="stroke:#181818;stroke-width:1.0;"/><path d="M265.4688,785.8652 Q264.8906,786.162 264.25,786.3027 Q263.6094,786.4589 262.9063,786.4589 Q260.4063,786.4589 259.0781,784.8183 Q257.7656,783.162 257.7656,780.037 Q257.7656,776.912 259.0781,775.2558 Q260.4063,773.5995 262.9063,773.5995 Q263.6094,773.5995 264.25,773.7558 Q264.9063,773.912 265.4688,774.2089 L265.4688,776.9277 Q264.8438,776.3495 264.25,776.0839 Q263.6563,775.8027 263.0313,775.8027 Q261.6875,775.8027 261,776.8808 Q260.3125,777.9433 260.3125,780.037 Q260.3125,782.1308 261,783.2089 Q261.6875,784.2714 263.0313,784.2714 Q263.6563,784.2714 264.25,784.0058 Q264.8438,783.7245 265.4688,783.1464 L265.4688,785.8652 Z " fill="#000000"/><text fill="#D9B8FF" font-family="Helvetica" font-size="17" lengthAdjust="spacing" textLength="37" x="281.5" y="786.1098">type</text></g><!--reverse link database_instance_type to azure_mysql_server_type--><g id="link_database_instance_type_azure_mysql_server_type"><path codeLine="56" d="M256.0522,1134.9236 C226.6522,1165.4436 181.97,1211.81 152.52,1242.37 " fill="none" id="database_instance_type-backto-azure_mysql_server_type" style="stroke:#FFAF37;stroke-width:2.0;"/><polygon fill="none" points="268.54,1121.96,251.731,1130.761,260.3734,1139.0862,268.54,1121.96" style="stroke:#FFAF37;stroke-width:2.0;"/></g><!--reverse link database_instance_type to azure_postgresql_server_type--><g id="link_database_instance_type_azure_postgresql_server_type"><path codeLine="57" d="M318.1117,1134.8812 C347.7117,1165.4012 392.72,1211.81 422.36,1242.37 " fill="none" id="database_instance_type-backto-azure_postgresql_server_type" style="stroke:#FFAF37;stroke-width:2.0;"/><polygon fill="none" points="305.58,1121.96,313.8046,1139.0584,322.4187,1130.704,305.58,1121.96" style="stroke:#FFAF37;stroke-width:2.0;"/></g><!--reverse link instance_type to database_instance_type--><g id="link_instance_type_database_instance_type"><path codeLine="58" d="M287,979.17 C287,1009.69 287,1051.02 287,1081.58 " fill="none" id="instance_type-backto-database_instance_type" style="stroke:#FFAF37;stroke-width:2.0;"/><polygon fill="none" points="287,961.17,281,979.17,293,979.17,287,961.17" style="stroke:#FFAF37;stroke-width:2.0;"/></g><!--reverse link type to instance_type--><g id="link_type_instance_type"><path codeLine="59" d="M287,818.38 C287,848.9 287,890.23 287,920.8 " fill="none" id="type-backto-instance_type" style="stroke:#FFAF37;stroke-width:2.0;"/><polygon fill="none" points="287,800.38,281,818.38,293,818.38,287,800.38" style="stroke:#FFAF37;stroke-width:2.0;"/></g><!--reverse link resource to phantom_resource--><g id="link_resource_phantom_resource"><path codeLine="60" d="M287,335.84 C287,384.13 287,413.36 287,438.67 " fill="none" id="resource-backto-phantom_resource" style="stroke:#FFAF37;stroke-width:2.0;"/><polygon fill="none" points="287,317.84,281,335.84,293,335.84,287,317.84" style="stroke:#FFAF37;stroke-width:2.0;"/></g><!--reverse link phantom_resource to quota--><g id="link_phantom_resource_quota"><path codeLine="61" d="M287,496.8 C287,527.32 287,568.65 287,599.22 " fill="none" id="phantom_resource-backto-quota" style="stroke:#FFAF37;stroke-width:2.0;"/><polygon fill="none" points="287,478.8,281,496.8,293,496.8,287,478.8" style="stroke:#FFAF37;stroke-width:2.0;"/></g><!--reverse link quota to type--><g id="link_quota_type"><path codeLine="62" d="M287,657.59 C287,688.11 287,729.44 287,760.01 " fill="none" id="quota-backto-type" style="stroke:#FFAF37;stroke-width:2.0;"/><polygon fill="none" points="287,639.59,281,657.59,293,657.59,287,639.59" style="stroke:#FFAF37;stroke-width:2.0;"/></g><!--SRC=[ZPDDRzD048Rl_XKhzHOHAQ62D8XB6md1fKAK6qBMP7VihEBTTMV7hLBWl-FDbh3-Idkpt_UPRtkd5GeqDH-4GRD5yfdVQri3WH7NHEvnuof7ug8eeBXSzSrFplABm2qO59-nUa3M4lh4zvsMUulUYxU9TGDoNv9hh8hfcS3wraBB2RMfmFjhPjBRXZ5fHgstLqNH9_j9BoxLSlKU1vWZXVICB1OBjLptaHTBdPtxHDpf9nJBT6ctZd7Gvg34aJhRPI2I9WU3_lCdU_mAIcbRYdU9zYtsH1Qfez_jGBd7G1TG-RICPoHqVAXnCvWArrUgM8t2NwRWJ8RL2NXg27DpyFTLxf4UaF8G9dvbsPyEKZlF9U4PJW735Zpcsde6At50J1hr3YmxaxVvNKEouzqtZY4L4cWsWn9dimz2DGIidGqAQnCrO0pFhIP7DAs2uDiltfRjQxkxhj3MuXoaRF-dNeMZqzGXLyyn8tKiHEcKcA6C6RKCOK277z5xyypyF8twVqyJo_tuUpwVJntnDK7ZPyt60iQpPGdHDKvtYcR_njdWw94xtZkBLu_ACTjV]--></g></svg>

<svg xmlns="http://www.w3.org/2000/svg" width="592" height="1288" viewBox="0 0 592 1288"><rect width="254" height="39.789" x="7" y="1242.7" fill="#3D176E" rx="2.5" ry="2.5" style="stroke:#000d19;stroke-width:.5"/><circle cx="22" cy="1262.594" r="11" fill="#ADD1B2" style="stroke:#181818;stroke-width:1"/><path d="M24.969 1268.235q-.578.297-1.219.438-.64.156-1.344.156-2.5 0-3.828-1.64-1.312-1.657-1.312-4.782t1.312-4.781q1.328-1.657 3.828-1.657.703 0 1.344.157.656.156 1.219.453v2.719q-.625-.579-1.219-.844-.594-.281-1.219-.281-1.343 0-2.031 1.078-.687 1.062-.687 3.156t.687 3.172q.688 1.062 2.031 1.062.625 0 1.219-.265.594-.282 1.219-.86z"/><text x="41" y="1268.48" fill="#D9B8FF" font-family="Helvetica" font-size="17" textLength="212">azure_mysql_server_type</text><rect width="289" height="39.789" x="296.5" y="1242.7" fill="#3D176E" rx="2.5" ry="2.5" style="stroke:#000d19;stroke-width:.5"/><circle cx="311.5" cy="1262.594" r="11" fill="#ADD1B2" style="stroke:#181818;stroke-width:1"/><path d="M314.469 1268.235q-.578.297-1.219.438-.64.156-1.344.156-2.5 0-3.828-1.64-1.312-1.657-1.312-4.782t1.312-4.781q1.328-1.657 3.828-1.657.703 0 1.344.157.656.156 1.219.453v2.719q-.625-.579-1.219-.844-.594-.281-1.219-.281-1.344 0-2.031 1.078-.687 1.062-.687 3.156t.687 3.172q.688 1.062 2.031 1.062.625 0 1.219-.265.594-.282 1.219-.86z"/><text x="330.5" y="1268.48" fill="#D9B8FF" font-family="Helvetica" font-size="17" textLength="247">azure_postgresql_server_type</text><rect width="242" height="39.789" x="166" y="1081.91" fill="#3D176E" rx="2.5" ry="2.5" style="stroke:#000d19;stroke-width:.5"/><circle cx="181" cy="1101.804" r="11" fill="#ADD1B2" style="stroke:#181818;stroke-width:1"/><path d="M183.969 1107.445q-.578.297-1.219.438-.64.156-1.344.156-2.5 0-3.828-1.64-1.312-1.657-1.312-4.782t1.312-4.781q1.328-1.657 3.828-1.657.703 0 1.344.157.656.156 1.219.453v2.719q-.625-.579-1.219-.844-.594-.281-1.219-.281-1.344 0-2.031 1.078-.687 1.062-.687 3.156t.687 3.172q.688 1.062 2.031 1.062.625 0 1.219-.265.594-.282 1.219-.86z"/><text x="200" y="1107.69" fill="#D9B8FF" font-family="Helvetica" font-size="17" textLength="200">database_instance_type</text><rect width="158" height="39.789" x="208" y="921.12" fill="#3D176E" rx="2.5" ry="2.5" style="stroke:#000d19;stroke-width:.5"/><circle cx="223" cy="941.014" r="11" fill="#ADD1B2" style="stroke:#181818;stroke-width:1"/><path d="M225.969 946.655q-.578.297-1.219.438-.64.156-1.344.156-2.5 0-3.828-1.64-1.312-1.657-1.312-4.782t1.312-4.781q1.328-1.657 3.828-1.657.703 0 1.344.157.656.156 1.219.453v2.719q-.625-.578-1.219-.844-.594-.281-1.219-.281-1.344 0-2.031 1.078-.687 1.062-.687 3.156t.687 3.172q.688 1.062 2.031 1.062.625 0 1.219-.265.594-.282 1.219-.86z"/><text x="242" y="946.9" fill="#D9B8FF" font-family="Helvetica" font-size="17" textLength="116">instance_type</text><rect width="198" height="39.789" x="188" y="438.76" fill="#3D176E" rx="2.5" ry="2.5" style="stroke:#000d19;stroke-width:.5"/><circle cx="203" cy="458.654" r="11" fill="#ADD1B2" style="stroke:#181818;stroke-width:1"/><path d="M205.969 464.295q-.578.297-1.219.438-.64.156-1.344.156-2.5 0-3.828-1.64-1.312-1.657-1.312-4.782t1.312-4.781q1.328-1.656 3.828-1.656.703 0 1.344.156.656.156 1.219.453v2.719q-.625-.579-1.219-.844-.594-.281-1.219-.281-1.344 0-2.031 1.078-.687 1.062-.687 3.156t.687 3.172q.688 1.062 2.031 1.062.625 0 1.219-.265.594-.281 1.219-.86z"/><text x="222" y="464.54" fill="#D9B8FF" font-family="Helvetica" font-size="17" textLength="156">phantom_resource</text><rect width="90" height="39.789" x="242" y="599.54" fill="#3D176E" rx="2.5" ry="2.5" style="stroke:#000d19;stroke-width:.5"/><circle cx="257" cy="619.434" r="11" fill="#ADD1B2" style="stroke:#181818;stroke-width:1"/><path d="M259.969 625.075q-.578.297-1.219.438-.64.156-1.344.156-2.5 0-3.828-1.64-1.312-1.657-1.312-4.782t1.312-4.781q1.328-1.657 3.828-1.657.703 0 1.344.157.656.156 1.219.453v2.719q-.625-.579-1.219-.844-.594-.281-1.219-.281-1.344 0-2.031 1.078-.687 1.062-.687 3.156t.687 3.172q.688 1.062 2.031 1.062.625 0 1.219-.265.594-.282 1.219-.86z"/><text x="276" y="625.32" fill="#D9B8FF" font-family="Helvetica" font-size="17" textLength="48">quota</text><rect width="227" height="310.758" x="173.5" y="7" fill="#3D176E" rx="2.5" ry="2.5" style="stroke:#000d19;stroke-width:.5"/><circle cx="242.25" cy="26.895" r="11" fill="#ADD1B2" style="stroke:#181818;stroke-width:1"/><path d="M245.219 32.535q-.578.297-1.219.438-.64.156-1.344.156-2.5 0-3.828-1.64-1.312-1.657-1.312-4.782t1.312-4.781q1.328-1.656 3.828-1.656.703 0 1.344.156.656.156 1.219.453v2.719q-.625-.578-1.219-.844-.594-.281-1.219-.281-1.344 0-2.031 1.078-.687 1.062-.687 3.156t.687 3.172q.688 1.062 2.031 1.062.625 0 1.219-.265.594-.281 1.219-.86z"/><text x="267.75" y="32.78" fill="#D9B8FF" font-family="Helvetica" font-size="17" textLength="71">resource</text><path d="M174.5 46.789h225" style="stroke:#000d19;stroke-width:.5"/><text x="184.5" y="68.784" fill="#D9B8FF" font-family="sans-serif" font-size="14" font-weight="bold" textLength="29">age</text><text x="213.5" y="68.784" fill="#D9B8FF" font-family="sans-serif" font-size="14" textLength="66">: duration</text><text x="184.5" y="95.081" fill="#D9B8FF" font-family="sans-serif" font-size="14" font-weight="bold" textLength="43">atime</text><text x="227.5" y="95.081" fill="#D9B8FF" font-family="sans-serif" font-size="14" textLength="70">: datetime</text><text x="184.5" y="121.378" fill="#D9B8FF" font-family="sans-serif" font-size="14" font-weight="bold" textLength="43">ctime</text><text x="227.5" y="121.378" fill="#D9B8FF" font-family="sans-serif" font-size="14" textLength="70">: datetime</text><text x="184.5" y="147.675" fill="#D9B8FF" font-family="sans-serif" font-size="14" font-weight="bold" textLength="14">id</text><text x="198.5" y="147.675" fill="#D9B8FF" font-family="sans-serif" font-size="14" textLength="48">: string</text><text x="184.5" y="173.972" fill="#D9B8FF" font-family="sans-serif" font-size="14" font-weight="bold" textLength="33">kind</text><text x="217.5" y="173.972" fill="#D9B8FF" font-family="sans-serif" font-size="14" textLength="48">: string</text><text x="184.5" y="200.269" fill="#D9B8FF" font-family="sans-serif" font-size="14" font-weight="bold" textLength="90">last_access</text><text x="274.5" y="200.269" fill="#D9B8FF" font-family="sans-serif" font-size="14" textLength="66">: duration</text><text x="184.5" y="226.565" fill="#D9B8FF" font-family="sans-serif" font-size="14" font-weight="bold" textLength="90">last_update</text><text x="274.5" y="226.565" fill="#D9B8FF" font-family="sans-serif" font-size="14" textLength="66">: duration</text><text x="184.5" y="252.862" fill="#D9B8FF" font-family="sans-serif" font-size="14" font-weight="bold" textLength="48">mtime</text><text x="232.5" y="252.862" fill="#D9B8FF" font-family="sans-serif" font-size="14" textLength="70">: datetime</text><text x="184.5" y="279.159" fill="#D9B8FF" font-family="sans-serif" font-size="14" font-weight="bold" textLength="43">name</text><text x="227.5" y="279.159" fill="#D9B8FF" font-family="sans-serif" font-size="14" textLength="48">: string</text><text x="184.5" y="305.456" fill="#D9B8FF" font-family="sans-serif" font-size="14" font-weight="bold" textLength="34">tags</text><text x="218.5" y="305.456" fill="#D9B8FF" font-family="sans-serif" font-size="14" textLength="171">: dictionary[string, string]</text><rect width="79" height="39.789" x="247.5" y="760.33" fill="#3D176E" rx="2.5" ry="2.5" style="stroke:#000d19;stroke-width:.5"/><circle cx="262.5" cy="780.225" r="11" fill="#ADD1B2" style="stroke:#181818;stroke-width:1"/><path d="M265.469 785.865q-.578.297-1.219.438-.64.156-1.344.156-2.5 0-3.828-1.64-1.312-1.657-1.312-4.782t1.312-4.781q1.328-1.656 3.828-1.656.703 0 1.344.156.656.156 1.219.453v2.719q-.625-.578-1.219-.844-.594-.281-1.219-.281-1.344 0-2.031 1.078-.687 1.062-.687 3.156t.687 3.172q.688 1.062 2.031 1.062.625 0 1.219-.265.594-.281 1.219-.86z"/><text x="281.5" y="786.11" fill="#D9B8FF" font-family="Helvetica" font-size="17" textLength="37">type</text><path fill="none" d="M256.052 1134.924c-29.4 30.52-74.082 76.886-103.532 107.446m116.02-120.41-16.809 8.801 8.642 8.325zm49.572 12.921c29.6 30.52 74.608 76.929 104.248 107.489m-116.78-120.41 8.225 17.098 8.614-8.354zM287 979.17v102.41m0-120.41-6 18h12zm0-142.79V920.8m0-120.42-6 18h12zm0-464.54v102.83m0-120.83-6 18h12zm0 178.96v102.42m0-120.42-6 18h12zm0 178.79v102.42m0-120.42-6 18h12z" style="stroke:#ffaf37;stroke-width:2"/></svg>
